!!!!SEGMENT: pl-wtm--a-43-196-99--001-013_kazuro-stanislaw--25-piesni-dzieciecych-z-fortepianem-op-49-jablonie.krn
!!!cenid: 19xx:209
!!!COM: Kazuro, Stanisław
!!!COM-rismID: pe50047136
!!!CDT: 1881/08/02-1961/11/30
!!!CNT: Polish
!!!GTL: 25 Pieśni dziecięcych z fortepianem, op. 49
!!!OTL: Jabłonie
!!!OMV: 013
!!!PDT: 1950
!!!AGN:
!!!YEC: Copyright 2022 Narodowy Instytut Fryderyka Chopina (https://polishscores.org)
!!!YEM: License CC-BY-4.0 (https://creativecommons.org/licenses/by/4.0)
!!!SMS-siglum: PL-Wtm
!!!SMS-shelfmark: A-43.196/99
!!!SMS-shelfwork: 001-013 G
!!!SMS-variant:
!!!SMS-altvar:
!!!NIFC-rismSourceID: 1001164821
!!!NIFC-rismChildID: 1001164821
!!!NIFC-islandoraID: pl-wtm:43198
!!!URL-pdf-islandora: https://repozytorium.nifc.pl/islandora/object/pl-wtm:43198/datastream/PDF/view
!!!URL-scan: https://polish.musicsources.pl/pl/lokalizacje/galeria/druki-muzyczne/22428/15 @EN{Scan on Polish Music Sources Website} @PL{Skany w portalu Dziedzictwo Muzyki Polskiej w otwartym dostępie}
!!!IIIF:
!!!ONB-nifc:
!!!AIN: 1 piano 1 vox
!!!key: G
!!!OMD: Tempo di valse.
**kern	**kern	**dynam	**kern	**text	**text	**dynam
*part2	*part2	*part2	*part1	*part1	*part1	*part1
*staff3	*staff2	*staff2/3	*staff1	*staff1	*staff1	*staff1
*I"[Piano]	*I"[Piano]	*	*I"[Voice]	*	*	*
*I'[pf]	*I'[pf]	*	*I'[V]	*	*	*
*Ipiano	*Ipiano	*	*Ivox	*	*	*
*ICklav	*ICklav	*	*ICvox	*	*	*
*IGacmp	*IGacmp	*	*IGsolo	*	*	*
*>[A,B,A]	*>[A,B,A]	*>[A,B,A]	*>[A,B,A]	*>[A,B,A]	*>[A,B,A]	*>[A,B,A]
*>A	*>A	*>A	*>A	*>A	*>A	*>A
*clefF4	*clefG2	*	*clefG2	*	*	*
*k[f#]	*k[f#]	*	*k[f#]	*	*	*
*G:	*G:	*	*G:	*	*	*
*M3/4	*M3/4	*	*M3/4	*	*	*
=1	=1	=1	=1	=1	=1	=1
*^	*^	*	*	*	*	*
!	!	!	!	!	!LO:TX:a:rj:t=Słowa A. Kwiecińskiej.	!	!	!
4r	2.GG\	4r	4ryy	mf	2.r	.	.	.
.	.	8qa#X/	.	.	.	.	.	.
4C#X/	.	4b/	2d\	.	.	.	.	.
.	.	8qa#/	.	.	.	.	.	.
4D/	.	4b/	.	.	.	.	.	.
=2	=2	=2	=2	=2	=2	=2	=2	=2
.	.	8qcc#X/	.	.	.	.	.	.
4CC/	4ryy	8dd/L	4e\	.	2.r	.	.	.
.	.	8ccn/J	.	.	.	.	.	.
2e-X 2c/	2A-X\	8ff#/L	2ryy	.	.	.	.	.
.	.	8ee-X/	.	.	.	.	.	.
.	.	8b-X/	.	.	.	.	.	.
.	.	8f#/J	.	.	.	.	.	.
*	*	*v	*v	*	*	*	*	*
=3	=3	=3	=3	=3	=3	=3	=3
2en 2c#X 2An/	2Gn\	8a\L	<	2.r	.	.	.
.	.	8een\	.	.	.	.	.
.	.	8aa\	.	.	.	.	.
.	.	8ffn\J	.	.	.	.	.
4e-X 4A/	4Fn\	8gg\L	.	.	.	.	.
.	.	8cc#X\J	[	.	.	.	.
=4	=4	=4	=4	=4	=4	=4	=4
*	*	*^	*	*	*	*	*
4r	2.D\	2.dd/	4r	>	2.r	.	.	.
(4d/	.	.	4b-X 4fn\	.	.	.	.	.
4B-X/	.	.	4gn 4e\	]]	.	.	.	.
=5	=5	=5	=5	=5	=5	=5	=5	=5
4A/)	(4D\	2.f#/	2.d\	>	2.r	.	.	.
4r	4BB-X\	.	.	.	.	.	.	.
4r	4AA\)	.	.	]]	.	.	.	.
*v	*v	*	*	*	*	*	*	*
*	*v	*v	*	*	*	*	*
!!LO:LB:g=original
=6	=6	=6	=6	=6	=6	=6
*	*	*	*	*v:1	*v:2	*
4GG 4GGG/	8b/L	p	4b\	Ja-	Wiatr	p
.	8d#X/	.	.	.	.	.
4B 4G\	8e/	.	4b\	-bło-	pła-	.
.	8f#/	.	.	.	.	.
4B 4G\	8a/	.	4a/	-nie	-tki	.
.	8f#/J	.	.	.	.	.
=7	=7	=7	=7	=7	=7	=7
*	*^	*	*	*	*	*
4FF#/	4g/	4e\	.	4g/	kwi-	strą-	.
4A#X 4F#\	4f#/	4dn\	.	4f#,/	-tną	-ca	.
4A# 4F#\	4e/	4c\	.	4e/	już	ra-	.
*	*v	*v	*	*	*	*	*
=8	=8	=8	=8	=8	=8	=8
4EE/	2.f# 2.c 2.A/	.	2.f#/	w sa-	-do-	.
(4D#X\	.	.	.	.	.	.
4E\	.	.	.	.	.	.
=9	=9	=9	=9	=9	=9	=9
*	*^	*	*	*	*	*
4E#X\	2.d/	2.B-X\	.	2d/	-dzie,	-śnie	.
4F#\	.	.	.	.	.	.	.
4G\	.	.	.	4r	.	.	.
=10	=10	=10	=10	=10	=10	=10	=10
*^	*	*	*	*	*	*	*
4AA/)	4ryy	8g/L	4c\	mp	4g/	kwi-	i	mp
.	.	8f#/	.	.	.	.	.	.
4d/	2F#\	8e/	2ryy	.	4a,/	-tną	mu-	.
.	.	8a/	.	.	.	.	.	.
4d#X/	.	8b/	.	.	4b\	ja-	-ska	.
.	.	8cc/J	.	.	.	.	.	.
*v	*v	*	*	*	*	*	*	*
=11	=11	=11	=11	=11	=11	=11	=11
*	*	*^	*	*	*	*	*
4C/	2.ee/	2.e\	2b\	.	2.ee^\	-bło-	skro-	.
4c\	.	.	.	.	.	.	.	.
4c#X\	.	.	4a#X\	.	.	.	.	.
*	*	*v	*v	*	*	*	*	*
=12	=12	=12	=12	=12	=12	=12	=12
(2.d\	2.dd/	4r	.	[2.b^\	-nie,	-nie.	.
.	.	4b 4g\	.	.	.	.	.
.	.	4b 4g\	.	.	.	.	.
!!LO:LB:g=original
=13	=13	=13	=13	=13	=13	=13	=13
*	*	*	*	*	*v:1	*v:2	*
2.d#X\)	2.b/	4r	.	2b\]	.	.	.
.	.	4a 4fn\	.	.	.	.	.
.	.	4a 4f\	.	4r	.	.	.
=14	=14	=14	=14	=14	=14	=14	=14
!	!	!	!	!	!	!	!LO:DY:rj
4e\	8cc/L	2.e\	mf	4cc^\	Wio-	Tak	mf
.	8b/	.	.	.	.	.	.
4F#\	8a/	.	.	4b\	-se-	ci-	.
.	8b/	.	.	.	.	.	.
4c\	8a/	.	.	4a/	-nka	-cho,	.
.	8g/J	.	.	.	.	.	.
=15	=15	=15	=15	=15	=15	=15	=15
2B\	4dd 4a/	2g 2d\	.	4dd\	w kwie-	sło-	.
.	4b/	.	.	4b,\	-cie	-dko,	.
4A\	4g/	4e-X 4c\	.	4g/	ich	ra-	.
=16	=16	=16	=16	=16	=16	=16	=16
2D\	(4f#/	2.en 2.c\	.	2.f#/	kła-	-do-	.
.	4a#X/	.	.	.	.	.	.
4DD/	4f#/)	.	.	.	.	.	.
=17	=17	=17	=17	=17	=17	=17	=17
2.E 2.GG 2.CC/	2.b/	4r	.	2e/	-dzie	-śnie	.
.	.	4e 4c\	.	.	.	.	.
.	.	4e [4c\	.	4r	.	.	.
=18	=18	=18	=18	=18	=18	=18	=18
[2.F# [>2.AA [2.DD/	8d/L	4c\]	p	4d/	prze-	kwi-	p
.	8f#/	.	.	.	.	.	.
.	8a#X/	2ryy	.	4f#/	-sło-	-tną	.
.	8dd/	.	.	.	.	.	.
.	8ff#/	.	.	4b\	-dkie	ja	.
.	8aan/J	.	.	.	.	.	.
!!LO:PB:g=original
=19	=19	=19	=19	=19	=19	=19	=19
*	*	*	*	*	*v:1	*v:2	*
2.F#] 2.AA] 2.DD/]	4ddd/	4gg 4cc\	.	2.f#/	wo-	bło-	.
.	4ee/	4cc 4a\	.	.	.	.	.
.	4dd/	4cc 4a-X\	.	.	.	.	.
=20	=20	=20	=20	=20	=20	=20	=20
*^	*	*	*	*	*	*	*
!	!	!	!	!	!LO:TX:a:t=R	!	!	!
4r	[2.GG\	[2.gg [<2.g/	2.ff#\	.	[2.g/	-nie.	-nie.	.
4B 4D/	.	.	.	.	.	.	.	.
4B 4D/	.	.	.	.	.	.	.	.
*	*	*v	*v	*	*	*	*	*
=21	=21	=21	=21	=21	=21	=21	=21
!	!	!LO:TX:c:i:t=Fine.	!	!	!	!	!
2G/	2GG\]	2gg] 2g/]	.	2g/]	.	.	.
4r	4ryy	4r	.	4r	.	.	.
*v	*v	*	*	*	*	*	*
=22||	=22||	=22||	=22||	=22||	=22||	=22||
*>B	*>B	*>B	*>B	*>B	*>B	*>B
*	*^	*	*	*	*	*
*	*	*	*	*	*	*v:1, 2.	*
(<8EE/L	(4b/	4b\	f	4b\	.	Ja-	f
8BB/	.	.	.	.	.	.	.
8G/	4dd/	4dd\	.	4dd\	.	-bło-	.
8B/	.	.	.	.	.	.	.
8d/	4ee/)	4ee\	.	4ee\	.	-nie	.
8f#/J	.	.	.	.	.	.	.
*	*v	*v	*	*	*	*	*
=23	=23	=23	=23	=23	=23	=23
(4dd> 4b> 4g>\)	4ff#~/	.	4ff#^\	.	kwi-	.
!LO:TX:a:t=m.s.	!	!	!	!	!	!
4cc> 4a> 4f#>\	4ee~/	.	4ee,\	.	-tną,	.
4b> 4g> 4e>\)	4dd~/	.	4dd\	.	wio-	.
=24	=24	=24	=24	=24	=24	=24
*	*^	*	*	*	*	*
!	!LO:TX:t=P:problem=brak początku ligatury	!	!	!	!	!	!
(<8CC/L	[2.b/	2.g 2.e\	.	2.b\	.	-se-	.
8GG/	.	.	.	.	.	.	.
8C/	.	.	.	.	.	.	.
8E/	.	.	.	.	.	.	.
8G/	.	.	.	.	.	.	.
8B/J	.	.	.	.	.	.	.
!!LO:LB:g=original
=25	=25	=25	=25	=25	=25	=25	=25
2.c\)	2.b/]	4r	.	2b\	.	-nka	.
.	.	4g 4e\	.	.	.	.	.
.	.	4g 4e\	.	4r	.	.	.
=26	=26	=26	=26	=26	=26	=26	=26
*	*	*^	*	*	*	*	*
(<8BBB/L	2f#/	4cc 4e\	4ryy	mf	4cc\	.	przy-	mf
8FF#/	.	.	.	.	.	.	.	.
8BB/	.	4d#X\	4b/	.	4b,\	.	-szła	.
8F#/	.	.	.	.	.	.	.	.
8G/	4ryy	4e 4c#X\	4a/	.	4a/	.	wza-	.
8A/J	.	.	.	.	.	.	.	.
*	*	*v	*v	*	*	*	*	*
=27	=27	=27	=27	=27	=27	=27	=27
2.D\)	(4dd/	2.f# 2.cn\	.	(2dd^\	.	-gro-	.
.	4a/	.	.	.	.	.	.
.	4a#X/)	.	.	4a#X/)	.	.	.
=28	=28	=28	=28	=28	=28	=28	=28
(<8GG/L	[2.b/	[2.g\	.	[2.b\	.	-dy.	.
8D#X/	.	.	.	.	.	.	.
8G/	.	.	.	.	.	.	.
8A#X/	.	.	.	.	.	.	.
8B/	.	.	.	.	.	.	.
8d#X/J	.	.	.	.	.	.	.
=29	=29	=29	=29	=29	=29	=29	=29
4f#\	2.b/]	2.g\]	.	2b\]	.	.	.
4e\	.	.	.	.	.	.	.
4dn\	.	.	.	4r	.	.	.
=30	=30	=30	=30	=30	=30	=30	=30
2.d 2.B\)	(8bb/L	4g\	p	4g/	.	Ta-	p
.	8gg/	.	.	.	.	.	.
.	8dd#X/	4f#\	.	4f#,/	.	-ka	.
.	8b/	.	.	.	.	.	.
.	8g/	4e\	.	4e/	.	ci	.
.	8g#X/J	.	.	.	.	.	.
*	*v	*v	*	*	*	*	*
!!LO:LB:g=original
=31	=31	=31	=31	=31	=31	=31
*^	*	*	*	*	*	*
2e/	4c 4A\	4a/	.	4cc^\	na	.	.
.	4B 4G\	4b\	.	4b\	niej	.	.
4d#X/	4A 4Fn\	4cc\	.	4a/	su-	.	.
=32	=32	=32	=32	=32	=32	=32	=32
*	*	*^	*	*	*	*	*
8B/	(8E\L	2.ee/)	2.g\	.	2.g/	-kie-	.	.
8r	8F#\	.	.	.	.	.	.	.
4rc	8G\	.	.	.	.	.	.	.
.	8A\	.	.	.	.	.	.	.
4rd	8B\	.	.	.	.	.	.	.
.	8c\J	.	.	.	.	.	.	.
*	*	*v	*v	*	*	*	*	*
=33	=33	=33	=33	=33	=33	=33	=33
!	!	!LO:TX:a:i:t=rit.	!	!	!	!	!
2g> 2e>\	4d\	4dd 4b/	.	2e/	-nka,	.	.
!	!LO:TX:a:i:t=rit.	!	!	!	!	!	!
.	8c\L	8cc/L	.	.	.	.	.
.	8B\J	8b/J	.	.	.	.	.
4e> 4c>\	8A\L	4a/	.	4r	.	.	.
.	8G\J)	.	.	.	.	.	.
=34	=34	=34	=34	=34	=34	=34	=34
!	!	!	!	!LO:TX:a:t=3	!	!	!
8F#/	(8DD\L	4d/	pp	4d/	kiej-	.	pp
8r	8D\	.	.	.	.	.	.
4rc	8E\	4c#X/	.	4e,/	-by	.	.
.	8A\	.	.	.	.	.	.
4rd	8F#\	4cn/	.	4b\	na	.	.
.	8d\J	.	.	.	.	.	.
*v	*v	*	*	*	*	*	*
=35	=35	=35	=35	=35	=35	=35
8B\L	2.d#X</	.	2.f#/	go-	.	.
8c\	.	.	.	.	.	.
8G#X\	.	.	.	.	.	.
8A\	.	.	.	.	.	.
8E#X\	.	.	.	.	.	.
8F#\J	.	.	.	.	.	.
=36	=36	=36	=36	=36	=36	=36
*^	*	*	*	*	*	*
4ryy	2.En\)	[2.e</	.	[2.e/	-dy.	.	.
4B 4G\	.	.	.	.	.	.	.
4B 4G\	.	.	.	.	.	.	.
=37	=37	=37	=37	=37	=37	=37	=37
2.c\	4DD\	2e</]	.	2e/]	.	.	.
.	2D;\	.	.	.	.	.	.
!LO:TX:b:i:rj:t=D.C. al Fine.	!	!	!	!	!	!	!
.	.	4d<;/	.	4r	.	.	.
*v	*v	*	*	*	*	*	*
=:|!	=:|!	=:|!	=:|!	=:|!	=:|!	=:|!
*-	*-	*-	*-	*-	*-	*-
!!!system-decoration: s1{(s2,s3)}
!!!RDF**kern: > = above
!!!RDF**kern: < = below
!!!ENC: Andrzej Gręziak
!!!END: 2025-03-28
!!!EED: Marta Lawrence
!!!EEV: 2025-04-02
